icons/camera.svg

<svg xmlns="http://www.w3.org/2000/svg" width="96" height="96"><path d="M12 24v52h72V32.1H36c-2.1 0-4.2-.8-5.7-2.3-1.5-1.5-2.3-3.6-2.3-5.8H12zm-8 0v52c0 2.1.8 4.2 2.3 5.7C7.8 83.2 9.9 84 12 84h72c2.1 0 4.2-.8 5.7-2.3 1.5-1.5 2.3-3.6 2.3-5.7V32.1c0-2.1-.8-4.1-2.3-5.6C88.2 25 86.1 24 84 24H36c0-2.1-.8-4.2-2.3-5.7-1.5-1.5-3.6-2.3-5.7-2.3H12c-2.1 0-4.2.8-5.7 2.3C4.8 19.8 4 21.9 4 24zm27 30c0-4.5 1.8-8.8 5-12 3.2-3.2 7.5-5 12-5s8.8 1.8 12 5c3.2 3.2 5 7.5 5 12s-1.8 8.8-5 12c-3.2 3.2-7.5 5-12 5s-8.8-1.8-12-5c-3.2-3.2-5-7.5-5-12zm8 0c0-2.4.9-4.7 2.6-6.4 1.7-1.7 4-2.6 6.4-2.6 2.4 0 4.7.9 6.4 2.6 1.7 1.7 2.6 4 2.6 6.4 0 2.4-.9 4.7-2.6 6.4-1.7 1.7-4 2.6-6.4 2.6-2.4 0-4.7-.9-6.4-2.6-1.7-1.7-2.6-4-2.6-6.4z" fill-rule="evenodd" fill="#454545"/></svg>

<?xml version="1.0" standalone="no"?><!-- Generator: Gravit.io --><svg xmlns="http://www.w3.org/2000/svg" xmlns:xlink="http://www.w3.org/1999/xlink" width="96" height="96"><path d=" M 12 24 L 12 76 L 84 76 L 84 32.1 L 36 32.1 C 33.9 32.1 31.8 31.3 30.3 29.8 C 28.8 28.3 28 26.2 28 24 L 12 24 Z  M 4 24 L 4 76 C 4 78.1 4.8 80.2 6.3 81.7 C 7.8 83.2 9.9 84 12 84 L 84 84 C 86.1 84 88.2 83.2 89.7 81.7 C 91.2 80.2 92 78.1 92 76 L 92 32.1 C 92 30 91.2 28 89.7 26.5 C 88.2 25 86.1 24 84 24 L 36 24 C 36 21.9 35.2 19.8 33.7 18.3 C 32.2 16.8 30.1 16 28 16 L 12 16 C 9.9 16 7.8 16.8 6.3 18.3 C 4.8 19.8 4 21.9 4 24 Z  M 31 54 C 31 49.5 32.8 45.2 36 42 C 39.2 38.8 43.5 37 48 37 C 52.5 37 56.8 38.8 60 42 C 63.2 45.2 65 49.5 65 54 C 65 58.5 63.2 62.8 60 66 C 56.8 69.2 52.5 71 48 71 C 43.5 71 39.2 69.2 36 66 C 32.8 62.8 31 58.5 31 54 Z  M 39 54 C 39 51.6 39.9 49.3 41.6 47.6 C 43.3 45.9 45.6 45 48 45 C 50.4 45 52.7 45.9 54.4 47.6 C 56.1 49.3 57 51.6 57 54 C 57 56.4 56.1 58.7 54.4 60.4 C 52.7 62.1 50.4 63 48 63 C 45.6 63 43.3 62.1 41.6 60.4 C 39.9 58.7 39 56.4 39 54 Z " fill-rule="evenodd" fill="#454545" stroke="none"/><mask id="_mask_lwbknLViqwwKhHYdQX6ziHfmWsNeY9I5"><path d=" M 12 24 L 12 76 L 84 76 L 84 32.1 L 36 32.1 C 33.9 32.1 31.8 31.3 30.3 29.8 C 28.8 28.3 28 26.2 28 24 L 12 24 Z  M 4 24 L 4 76 C 4 78.1 4.8 80.2 6.3 81.7 C 7.8 83.2 9.9 84 12 84 L 84 84 C 86.1 84 88.2 83.2 89.7 81.7 C 91.2 80.2 92 78.1 92 76 L 92 32.1 C 92 30 91.2 28 89.7 26.5 C 88.2 25 86.1 24 84 24 L 36 24 C 36 21.9 35.2 19.8 33.7 18.3 C 32.2 16.8 30.1 16 28 16 L 12 16 C 9.9 16 7.8 16.8 6.3 18.3 C 4.8 19.8 4 21.9 4 24 Z  M 31 54 C 31 49.5 32.8 45.2 36 42 C 39.2 38.8 43.5 37 48 37 C 52.5 37 56.8 38.8 60 42 C 63.2 45.2 65 49.5 65 54 C 65 58.5 63.2 62.8 60 66 C 56.8 69.2 52.5 71 48 71 C 43.5 71 39.2 69.2 36 66 C 32.8 62.8 31 58.5 31 54 Z  M 39 54 C 39 51.6 39.9 49.3 41.6 47.6 C 43.3 45.9 45.6 45 48 45 C 50.4 45 52.7 45.9 54.4 47.6 C 56.1 49.3 57 51.6 57 54 C 57 56.4 56.1 58.7 54.4 60.4 C 52.7 62.1 50.4 63 48 63 C 45.6 63 43.3 62.1 41.6 60.4 C 39.9 58.7 39 56.4 39 54 Z " fill-rule="evenodd" fill="white" stroke="none"/></mask><path d=" M 12 24 L 12 76 L 84 76 L 84 32.1 L 36 32.1 C 33.9 32.1 31.8 31.3 30.3 29.8 C 28.8 28.3 28 26.2 28 24 L 12 24 Z  M 4 24 L 4 76 C 4 78.1 4.8 80.2 6.3 81.7 C 7.8 83.2 9.9 84 12 84 L 84 84 C 86.1 84 88.2 83.2 89.7 81.7 C 91.2 80.2 92 78.1 92 76 L 92 32.1 C 92 30 91.2 28 89.7 26.5 C 88.2 25 86.1 24 84 24 L 36 24 C 36 21.9 35.2 19.8 33.7 18.3 C 32.2 16.8 30.1 16 28 16 L 12 16 C 9.9 16 7.8 16.8 6.3 18.3 C 4.8 19.8 4 21.9 4 24 Z  M 31 54 C 31 49.5 32.8 45.2 36 42 C 39.2 38.8 43.5 37 48 37 C 52.5 37 56.8 38.8 60 42 C 63.2 45.2 65 49.5 65 54 C 65 58.5 63.2 62.8 60 66 C 56.8 69.2 52.5 71 48 71 C 43.5 71 39.2 69.2 36 66 C 32.8 62.8 31 58.5 31 54 Z  M 39 54 C 39 51.6 39.9 49.3 41.6 47.6 C 43.3 45.9 45.6 45 48 45 C 50.4 45 52.7 45.9 54.4 47.6 C 56.1 49.3 57 51.6 57 54 C 57 56.4 56.1 58.7 54.4 60.4 C 52.7 62.1 50.4 63 48 63 C 45.6 63 43.3 62.1 41.6 60.4 C 39.9 58.7 39 56.4 39 54 Z " fill-rule="evenodd" fill="none" stroke="none" stroke-width="16" mask="url(#_mask_lwbknLViqwwKhHYdQX6ziHfmWsNeY9I5)"/></svg>
